icons/code-review-24.svg

<svg width="24" height="24" viewBox="0 0 24 24" fill="none" xmlns="http://www.w3.org/2000/svg">
<path d="M10.2996 6.73967C10.5814 7.0432 10.5639 7.51775 10.2603 7.7996L7.35221 10.5L10.2603 13.2004C10.5639 13.4823 10.5814 13.9568 10.2996 14.2603C10.0177 14.5639 9.54319 14.5815 9.23966 14.2996L5.73966 11.0496C5.58684 10.9077 5.5 10.7086 5.5 10.5C5.5 10.2915 5.58684 10.0923 5.73966 9.95041L9.23966 6.70041C9.54319 6.41856 10.0177 6.43613 10.2996 6.73967Z" fill="#24292E"/>
<path d="M13.7397 7.7996C13.4361 7.51775 13.4186 7.0432 13.7004 6.73967C13.9823 6.43613 14.4568 6.41856 14.7603 6.70041L18.2603 9.95041C18.4132 10.0923 18.5 10.2915 18.5 10.5C18.5 10.7086 18.4132 10.9077 18.2603 11.0496L14.7603 14.2996C14.4568 14.5815 13.9823 14.5639 13.7004 14.2603C13.4186 13.9568 13.4361 13.4823 13.7397 13.2004L16.6478 10.5L13.7397 7.7996Z" fill="#24292E"/>
<path fill-rule="evenodd" clip-rule="evenodd" d="M1.5 4.25C1.5 3.2835 2.2835 2.5 3.25 2.5H20.75C21.7165 2.5 22.5 3.2835 22.5 4.25V16.75C22.5 17.7165 21.7165 18.5 20.75 18.5H11.0607L7.48744 22.0732C7.21418 22.3465 6.84356 22.5 6.45711 22.5C5.65237 22.5 5 21.8476 5 21.0429V18.5H3.25C2.2835 18.5 1.5 17.7165 1.5 16.75V4.25ZM3.25 4C3.11193 4 3 4.11193 3 4.25V16.75C3 16.8881 3.11193 17 3.25 17H5.75C6.16421 17 6.5 17.3358 6.5 17.75V20.9393L10.2197 17.2197C10.3603 17.079 10.5511 17 10.75 17H20.75C20.8881 17 21 16.8881 21 16.75V4.25C21 4.11193 20.8881 4 20.75 4H3.25Z" fill="#24292E"/>
</svg>

<svg xmlns="http://www.w3.org/2000/svg" width="24" height="24" viewBox="0 0 24 24"><path d="M10.3 6.74a.75.75 0 01-.04 1.06l-2.908 2.7 2.908 2.7a.75.75 0 11-1.02 1.1l-3.5-3.25a.75.75 0 010-1.1l3.5-3.25a.75.75 0 011.06.04zm3.44 1.06a.75.75 0 111.02-1.1l3.5 3.25a.75.75 0 010 1.1l-3.5 3.25a.75.75 0 11-1.02-1.1l2.908-2.7-2.908-2.7z"/><path fill-rule="evenodd" d="M1.5 4.25c0-.966.784-1.75 1.75-1.75h17.5c.966 0 1.75.784 1.75 1.75v12.5a1.75 1.75 0 01-1.75 1.75h-9.69l-3.573 3.573A1.457 1.457 0 015 21.043V18.5H3.25a1.75 1.75 0 01-1.75-1.75V4.25zM3.25 4a.25.25 0 00-.25.25v12.5c0 .138.112.25.25.25h2.5a.75.75 0 01.75.75v3.19l3.72-3.72a.75.75 0 01.53-.22h10a.25.25 0 00.25-.25V4.25a.25.25 0 00-.25-.25H3.25z"/></svg>
